X:1
T:大提琴练习曲_Book1_P6_No.18
T:大提琴练习曲_Book1_P11_No.18
L:1/8
Q:1/4=80
M:4/4
K:G
V:1 bass nm="Piano" snm="Pno."
V:1
 C,,2 C,,2 C,,2 C,,2 | (3(G,,B,,D,) (3D,D,D, (3(B,,D,G,) (3G,G,G, | %2
 (3(D,G,B,) (3B,B,B, (3(G,B,D) (3DDD | (3(^CA,E,) (3E,E,E, (3(=CA,_E,) (3E,E,E, | %4
 (3(B,G,D,) (3D,D,D, (3(A,F,D,) (3D,D,D, | (3(G,,B,,D,) (3D,D,D, (3(B,,D,G,) (3G,G,G, | %6
 (3(D,G,B,) (3B,B,B, (3(G,B,D) (3DDD | (3(B,DB,) (3F,F,F, (3(E,G,E,) (3A,,A,,A,, | %8
 (3(D,F,D,) (3D,D,D, D,2 z2 | (3(C,D,F,) (3F,F,F, (3(D,F,A,) (3A,A,A, | %10
 (3(B,,D,G,) (3G,G,G, (3(D,G,B,) (3B,B,B, | (3(CA,F,) (3F,F,F, (3(A,F,D,) (3D,D,D, | %12
 (3(B,G,D,) (3D,D,D, (3(G,D,B,,) (3B,,B,,B,, | (3(G,,B,,D,) (3D,D,D, (3(B,,D,G,) (3G,G,G, | %14
 (3(C,E,A,) (3A,A,A, (3(A,E,C,) (3C,C,C, | (3(D,G,D,) (3B,,B,,B,, (3(A,,C,A,,) (3D,,D,,D,, | %16
 (3(G,,B,,G,,) (3G,,G,,G,, G,,2 z2 |] %17

